X: 40564
T: Tommy Reck's
R: jig
M: 6/8
K: Gmajor
G/F/E D ~D3|G/F/E D C2e|dBG GAB|AGE E3|
G/F/E ~D3|G/F/E C2e|dBG GAB|AGF G3:|
gdB G B/c/ d|gdB c2e|dBG GAB|AGE E3|
gdB G B/c/ d|gdB c2e|dBG GAB|AGF G3:|

